X:219
T:O'Keefe's reel
T:Tom Billy's reel
T:Speed the plough
R:Reel
P:See also: The magpie's nest
B:Ceol Rince 3 n92
S:Richard Darsie's web page
Z:Transcription, chords:Mike Long
M:C|
L:1/8
K:D
"D"d3A "G"BAFB|"D"AF~F2 "A"EFDE|"D"F2AF "G"G2BG|\
"A"ABde fdef|"D"d3A "G"BAFB|"D"AF~F2 "A"EFDE|
"D"F2AF "G"G2BG|"A"ABde "D"fdd2:|\
|:"D"faaf afdf|\
"G"gefd "A"edBd|"D"faaf a3B|
"G/Em"ABde "A"fee2|"D"faaf afdf|"G"gefd "A"edBA|\
"D"F2AF "G"G2BG|"A"ABde "D"fdd2:|
